src/svgs/hammer.svg

<svg xmlns="http://www.w3.org/2000/svg" viewBox="0 0 24 24" width="512" height="512" aria-labelledby="fshammer-desc fshammer-title"><title id="fshammer-title">Hammer Icon</title><desc id="fshammer-desc">A picture showing a hammer.</desc><path d="M20 3v6h-4V8h-3v14h-3V8H7c-2 0-3 1.172-3 2V8c0-2 0-4 3-4h3V2h3v2h3V3z"/></svg>

<svg xmlns="http://www.w3.org/2000/svg" viewBox="0 0 24 24"><path d="M20,3V9H16V8H13V22H10V8H7C5,8,4,9.172,4,10V8C4,6,4,4,7,4h3V2h3V4h3V3Z"/></svg>
